X:1
T: The Shearing of the Shepherd
C:
R:Jig
Q:180
K:G
M:6/8
L:1/16
|:D2|G2B2d2 g2f2g2|e4g2 c2d2e2|d2G2G2 B2A2G2|A2B2G2 F2E2D2|
G2B2d2 g2f2g2|e4g2 c2d2e2|d2B2d2 c2B2A2|1G6 G4D2:|2G6 G4f2|
|:e2B2B2 B4f2|e2B2B2 g2f2e2|d2A2A2 A4d2|
|1f2g2a2 ^d2e2f2|e2B2B2 B4f2|e2B2B2 c2d2e2|d2B2d2 c2B2A2|G6 G4f2:|
|2A2B2G2 F2E2D2|G2B2d2 g2f2g2|e4g2 c2d2e2|d2B2d2 c2B2A2|G6G4||
